dist/svgs/core-ui-icons/free/cil-list-rich.svg

<svg xmlns="http://www.w3.org/2000/svg" viewBox="0 0 512 512"><path d="M136 24H16v120h120zm-32 88H48V56h56zm32 88H16v120h120zm-32 88H48v-56h56zm32 88H16v120h120zm-32 88H48v-56h56zm72-440.002h320v32H176zm0 88h256v32H176zm0 88h320v32H176zm0 88h256v32H176zm0 176h256v32H176zm0-88h320v32H176z"/></svg>

<svg xmlns="http://www.w3.org/2000/svg" viewBox="0 0 512 512">
  <path fill="var(--ci-primary-color, currentColor)" d="M136,24H16V144H136Zm-32,88H48V56h56Z" class="ci-primary"/>
  <path fill="var(--ci-primary-color, currentColor)" d="M136,200H16V320H136Zm-32,88H48V232h56Z" class="ci-primary"/>
  <path fill="var(--ci-primary-color, currentColor)" d="M136,376H16V496H136Zm-32,88H48V408h56Z" class="ci-primary"/>
  <rect width="320" height="32" x="176" y="23.998" fill="var(--ci-primary-color, currentColor)" class="ci-primary"/>
  <rect width="256" height="32" x="176" y="111.998" fill="var(--ci-primary-color, currentColor)" class="ci-primary"/>
  <rect width="320" height="32" x="176" y="199.998" fill="var(--ci-primary-color, currentColor)" class="ci-primary"/>
  <rect width="256" height="32" x="176" y="287.998" fill="var(--ci-primary-color, currentColor)" class="ci-primary"/>
  <rect width="256" height="32" x="176" y="463.998" fill="var(--ci-primary-color, currentColor)" class="ci-primary"/>
  <rect width="320" height="32" x="176" y="375.998" fill="var(--ci-primary-color, currentColor)" class="ci-primary"/>
</svg>
